packages/atlas/src/components/_illustrations/svgs/joystream-logo-studio.svg

<svg width="109" height="32" viewBox="0 0 109 32" fill="none" xmlns="http://www.w3.org/2000/svg">
<path fill-rule="evenodd" clip-rule="evenodd" d="M91.879 7.05795H88.969V4.14795H91.879V7.05795ZM88.969 9.38495V23.95H91.989L91.879 9.38595H88.969V9.38495ZM72.865 16.4699C72.865 18.6559 73.493 20.434 74.749 21.805C76.023 23.1569 77.611 23.833 79.514 23.833C80.049 23.833 80.576 23.753 81.094 23.597C81.61 23.4389 82.026 23.263 82.34 23.069C82.654 22.874 82.95 22.6469 83.226 22.389C83.504 22.129 83.684 21.949 83.766 21.846C83.85 21.744 83.91 21.666 83.946 21.61H84.086V23.93H86.994V4.14995H84.057L84.085 11.1909H83.947L83.503 10.6629C83.189 10.3299 82.663 9.98695 81.924 9.63495C81.1705 9.28025 80.3467 9.10011 79.514 9.10795C77.611 9.10795 76.028 9.78795 74.762 11.1499C73.497 12.5109 72.865 14.2839 72.865 16.4699ZM75.509 16.4699C75.509 15.0249 75.906 13.8769 76.701 13.0249C77.495 12.1729 78.529 11.7469 79.804 11.7469C81.078 11.7469 82.112 12.1729 82.907 13.0249C83.701 13.8769 84.098 15.0249 84.098 16.4699C84.098 17.9149 83.701 19.063 82.907 19.915C82.112 20.767 81.078 21.193 79.804 21.193C78.529 21.193 77.494 20.767 76.701 19.915C75.906 19.063 75.509 17.9149 75.509 16.4699ZM47.519 12.0249V9.38495H49.181V6.32995H52.091V9.38595H56.384V12.0259H52.09V21.292H56.523V23.9319H51.588C50.9496 23.9319 50.3374 23.6784 49.886 23.227C49.4346 22.7756 49.181 22.1633 49.181 21.5249V12.0249H47.519ZM36.995 19.2979H33.809L33.948 19.7979C34.022 20.1119 34.202 20.5009 34.488 20.965C34.774 21.427 35.139 21.891 35.582 22.354C36.026 22.8169 36.677 23.21 37.536 23.534C38.395 23.859 39.369 24.02 40.459 24.02C42.306 24.02 43.76 23.6 44.822 22.756C45.884 21.914 46.415 20.899 46.415 19.714C46.415 18.844 46.198 18.1079 45.764 17.5049C45.3498 16.9186 44.7786 16.461 44.116 16.1849C43.4202 15.8967 42.7075 15.6509 41.982 15.4489C41.2803 15.2485 40.5682 15.0863 39.849 14.9629C39.184 14.8519 38.635 14.6709 38.201 14.4209C37.767 14.1709 37.55 13.8609 37.55 13.4909C37.55 13.0459 37.762 12.6759 38.187 12.3789C38.612 12.0829 39.23 11.9349 40.043 11.9349C40.542 11.9349 40.99 11.9989 41.387 12.1289C41.784 12.2589 42.089 12.4029 42.301 12.5589C42.513 12.7169 42.698 12.9029 42.855 13.1159C43.012 13.3279 43.109 13.4719 43.146 13.5459C43.183 13.6199 43.211 13.6859 43.229 13.7409H46.277L46.166 13.2959C46.092 12.9809 45.921 12.6059 45.653 12.1709C45.3602 11.7031 45.0215 11.2656 44.642 10.8649C44.236 10.4299 43.626 10.0589 42.814 9.75395C42.001 9.44795 41.077 9.29495 40.043 9.29495C38.381 9.29495 37.042 9.71195 36.026 10.5449C35.01 11.3789 34.502 12.3519 34.502 13.4629C34.502 14.4999 34.807 15.3429 35.416 15.9909C36.0211 16.6364 36.7859 17.1107 37.633 17.3659C38.501 17.6349 39.369 17.8529 40.237 18.0189C41.105 18.1859 41.844 18.3989 42.453 18.6589C43.063 18.9179 43.368 19.269 43.368 19.714C43.368 20.1959 43.137 20.594 42.675 20.909C42.213 21.224 41.475 21.381 40.459 21.381C39.942 21.381 39.466 21.307 39.032 21.159C38.598 21.011 38.265 20.844 38.034 20.659C37.803 20.4738 37.5978 20.2586 37.424 20.0189C37.3022 19.8599 37.1913 19.6929 37.092 19.5189C37.0549 19.4475 37.0225 19.3736 36.995 19.2979ZM93.542 16.4699C93.542 18.5629 94.244 20.314 95.648 21.721C97.052 23.129 98.798 23.833 100.884 23.833C102.971 23.833 104.717 23.129 106.12 21.721C107.524 20.314 108.226 18.563 108.226 16.471C108.226 14.377 107.524 12.6269 106.12 11.2189C104.717 9.81095 102.971 9.10795 100.884 9.10795C98.797 9.10795 97.052 9.81095 95.648 11.2179C94.244 12.627 93.542 14.3779 93.542 16.4699ZM96.59 16.4699C96.59 15.0249 96.987 13.8769 97.781 13.0249C98.575 12.1729 99.61 11.7469 100.884 11.7469C102.158 11.7469 103.193 12.1729 103.987 13.0249C104.781 13.8769 105.178 15.0249 105.178 16.4699C105.178 17.9149 104.781 19.063 103.987 19.915C103.193 20.767 102.158 21.193 100.884 21.193C99.61 21.193 98.575 20.767 97.781 19.915C96.987 19.063 96.59 17.9149 96.59 16.4699ZM68.42 9.38995L68.417 16.4699C68.417 19.2789 66.679 21.183 64.513 21.193H64.381C62.215 21.183 60.476 19.2789 60.476 16.4699V9.38995H57.832V16.4699C57.832 20.6849 60.253 23.6789 64.098 23.827C65.233 23.827 65.935 23.527 66.674 23.069C66.9913 22.8721 67.2885 22.6443 67.561 22.389C67.838 22.129 68.018 21.949 68.101 21.846C68.184 21.744 68.244 21.666 68.281 21.61H68.42V23.9489H71.438L71.328 9.38495L68.419 9.38895L68.42 9.38995Z" fill="white"/>
<path d="M16.8739 0H19.7819V13.664C19.7845 16.8621 18.6114 19.9495 16.4859 22.339C16.7438 21.2105 16.874 20.0566 16.8739 18.899V0ZM7.54594 23.856C6.82358 24.7499 5.91319 25.4737 4.87948 25.9759C3.84577 26.4782 2.71411 26.7466 1.56494 26.762L2.43794 23.856H7.54594ZM9.30894 18.62V18.912C9.30994 19.802 9.15894 20.687 8.86094 21.526H3.13294L3.99994 18.621H9.30894V18.62ZM22.1089 0H25.0179V8.438C25.0202 11.6372 23.8473 14.7258 21.7219 17.117C21.9789 15.987 22.1089 14.832 22.1089 13.674V0Z" fill="#4038FF"/>
<path d="M14.544 0V18.912C14.5355 22.3811 13.1535 25.7056 10.7002 28.1583C8.24692 30.6111 4.92208 31.9923 1.453 32H0L0.867 29.091H1.453C4.15235 29.0891 6.74065 28.0162 8.64965 26.1078C10.5587 24.1993 11.6324 21.6113 11.635 18.912V0H14.544Z" fill="#4038FF"/>
</svg>

<svg width="109" height="32" fill="none" xmlns="http://www.w3.org/2000/svg"><g clip-path="url(#clip0)"><path fill-rule="evenodd" clip-rule="evenodd" d="M91.879 7.058h-2.91v-2.91h2.91v2.91zm-2.91 2.327V23.95h3.02l-.11-14.564h-2.91zM72.865 16.47c0 2.186.628 3.964 1.884 5.335 1.274 1.352 2.862 2.028 4.765 2.028.535 0 1.062-.08 1.58-.236.516-.158.932-.334 1.246-.528.314-.195.61-.422.886-.68.278-.26.458-.44.54-.543.084-.102.144-.18.18-.236h.14v2.32h2.908V4.15h-2.937l.028 7.041h-.138l-.444-.528c-.314-.333-.84-.676-1.579-1.028a5.536 5.536 0 00-2.41-.527c-1.903 0-3.486.68-4.752 2.042-1.265 1.361-1.897 3.134-1.897 5.32zm2.644 0c0-1.445.397-2.593 1.192-3.445.794-.852 1.828-1.278 3.103-1.278 1.274 0 2.308.426 3.103 1.278.794.852 1.191 2 1.191 3.445 0 1.445-.397 2.593-1.191 3.445-.795.852-1.829 1.278-3.103 1.278-1.275 0-2.31-.426-3.103-1.278-.795-.852-1.192-2-1.192-3.445zm-27.99-4.445v-2.64h1.662V6.33h2.91v3.056h4.293v2.64H52.09v9.266h4.433v2.64h-4.935a2.407 2.407 0 01-2.407-2.407v-9.5h-1.662zm-10.524 7.273h-3.186l.139.5c.074.314.254.703.54 1.167.286.462.651.926 1.094 1.389.444.463 1.095.856 1.954 1.18.859.325 1.833.486 2.923.486 1.847 0 3.301-.42 4.363-1.264 1.062-.842 1.593-1.857 1.593-3.042 0-.87-.217-1.606-.651-2.209a3.813 3.813 0 00-1.648-1.32 18.637 18.637 0 00-2.134-.736 20.184 20.184 0 00-2.133-.486c-.665-.111-1.214-.292-1.648-.542-.434-.25-.651-.56-.651-.93 0-.445.212-.815.637-1.112.425-.296 1.043-.444 1.856-.444.499 0 .947.064 1.344.194.397.13.702.274.914.43.212.158.397.344.554.557.157.212.254.356.291.43.037.074.065.14.083.195h3.048l-.111-.445c-.074-.315-.245-.69-.513-1.125a8.306 8.306 0 00-1.011-1.306c-.406-.435-1.016-.806-1.828-1.111-.813-.306-1.737-.459-2.771-.459-1.662 0-3.001.417-4.017 1.25-1.016.834-1.524 1.807-1.524 2.918 0 1.037.305 1.88.914 2.528a5.028 5.028 0 002.217 1.375c.868.269 1.736.487 2.604.653.868.167 1.607.38 2.216.64.61.259.915.61.915 1.055 0 .482-.231.88-.693 1.195-.462.315-1.2.472-2.216.472-.517 0-.993-.074-1.427-.222-.434-.148-.767-.315-.998-.5a3.314 3.314 0 01-.61-.64 4.46 4.46 0 01-.332-.5 1.857 1.857 0 01-.097-.221zm56.547-2.828c0 2.093.702 3.844 2.106 5.251 1.404 1.408 3.15 2.112 5.236 2.112 2.087 0 3.833-.704 5.236-2.112 1.404-1.407 2.106-3.158 2.106-5.25 0-2.094-.702-3.844-2.106-5.252-1.403-1.408-3.149-2.111-5.236-2.111-2.087 0-3.832.703-5.236 2.11-1.404 1.409-2.106 3.16-2.106 5.252zm3.048 0c0-1.445.397-2.593 1.191-3.445.794-.852 1.829-1.278 3.103-1.278 1.274 0 2.309.426 3.103 1.278.794.852 1.191 2 1.191 3.445 0 1.445-.397 2.593-1.191 3.445-.794.852-1.829 1.278-3.103 1.278-1.274 0-2.309-.426-3.103-1.278-.794-.852-1.191-2-1.191-3.445zm-28.17-7.08l-.003 7.08c0 2.809-1.738 4.713-3.904 4.723h-.132c-2.166-.01-3.905-1.914-3.905-4.723V9.39h-2.644v7.08c0 4.215 2.421 7.209 6.266 7.357 1.135 0 1.837-.3 2.576-.758a5.66 5.66 0 00.887-.68c.277-.26.457-.44.54-.543.083-.102.143-.18.18-.236h.139v2.339h3.018l-.11-14.564-2.909.004z" fill="#fff"/><path d="M16.874 0h2.908v13.664a13.037 13.037 0 01-3.296 8.675 15.44 15.44 0 00.388-3.44V0zM7.546 23.856a7.825 7.825 0 01-5.981 2.906l.873-2.906h5.108zM9.309 18.62v.292c.001.89-.15 1.775-.448 2.614H3.133L4 18.621h5.309zM22.109 0h2.909v8.438a13.05 13.05 0 01-3.296 8.679c.257-1.13.387-2.285.387-3.443V0z" fill="#4038FF"/><path d="M14.544 0v18.912A13.12 13.12 0 011.453 32H0l.867-2.909h.586a10.189 10.189 0 0010.182-10.179V0h2.909z" fill="#4038FF"/></g><defs><clipPath id="clip0"><path fill="#fff" d="M0 0h108.308v32H0z"/></clipPath></defs></svg>
